X: 34
T: Snake Dance Song (b)
C: Anon.
%%abc-version 2.0
%%abcx-abcm2ps-target-version 5.9.1 (29 Sep 2008)
%%abc-creator hum2abc beta
%%abcx-conversion-date 2020/08/10 20:56:09
%%abc-copyright Electronic Copyright 2000 David Huron
%%abc-edited-by David Huron
%%abcx-initial-encoding-date August 28, 2000
%%humdrum-veritas 2042649866
%%humdrum-veritas-data 3450707912
%%linebreak <none>
%%barnumbers 0
L: 1/8
M: 2/4
Q: 1/4=63
K: F clef=bass
F,> G,G,2[M:3/4] | 
A,> F, F, C,C,2[M:2/4] | 
A,> ^G,G,2[M:3/4] | 
=G,> F, F, C, C, z[M:2/4] | 
F, F,/ F,/G,2[M:3/4] | 
A,> F, F, C,C,2[M:2/4] | 
C A,/ A,/A,2[M:3/4] | 
G,> F, F, C, C, z[M:2/4] | 
F, F,/ F,/G,2[M:3/4] | 
A,> F, F, C,C,2[M:2/4] | 
C A,/ A,/A,2[M:3/4] | 
G,> F, F, C, C, z |]  
A,/ A,/ A, A,/ A,/ A,/ z/ :||:  
A,/ A,/ A, A, A,/ z/ :|]  


